X:1
T:Title
%%score { ( 1 3 ) | ( 2 4 ) }
L:1/8
M:4/4
K:G
V:1 treble nm="Grand Piano"
V:3 treble 
V:2 bass 
V:4 bass 
V:1
 z4 z2[Q:1/4=100] [B,D]>[B,G] | [DB]>[DB] [^C_B]>[D=B] [Ec]>[DB] [DA]>[DG] | %2
 [EG]>[EG] [DF]>[CE] [B,D]2 D>D | G>G G>G [^CG]>[CE] [CF]>[CG] | [DA]6 [B,D]>[B,G] | %5
 [DB]>[DB] [^C_B]>[D=B] [Ec]>[DB] [DA]>[DG] | [EA]>[EG] [EG]>[CE] [EG]2 [DF]>E | %7
 D>B [Ec]>[DB] [^CB]<[A,CA] [A,=CE]>[A,CF] |[M:3/4] [G,B,G]6 |[M:1/4] B>c |[M:4/4] d6 z2 | %11
 [GB]<[FA] [FA]>[FA] [FA]2 [EA]>[E^GB] | [Ac]6 z2 | c<B B>B B2 [B,D]>[B,G] | %14
 [DB]>[DB] [^C_B]>[D=B] [Ec]>[DB] [DA]>[DG] |[M:9/8] [EA]>[EA][EA]- [EA]/B/ c2- c[G^c]>[Gc] | %16
[M:4/4] [Gd]>[B,G] [EGc]>[DGB] [^CGB]<[CGA] [=CE]>[CDF] |[M:3/4] [G,B,DG]6 |] %18
V:2
 z4 z2 [G,,G,]>[G,,G,] | [G,,G,]>[G,,G,] [G,,G,]>[G,,G,] [G,,G,]>[G,,G,] [A,,F,]>[B,,G,] | %2
 [C,C]>[C,C] [C,G,]>[C,G,] [G,,G,]2 [G,B,]>[G,B,] | %3
 [E,G,B,]>[E,G,B,] [E,G,B,]>[E,G,B,] [A,,A,]>[A,,A,] [A,,A,]>[A,,G,] | [D,F,]6 [G,,G,]>[G,,G,] | %5
 [G,,G,]>[G,,G,] [G,,G,]>[G,,G,] [G,,G,]>[G,,G,] [A,,F,]>[B,,G,] | %6
 [C,C]>[C,C] [C,C]>[C,G,] [C,C]2 [C,G,]>[C,G,C] | %7
 [D,G,B,]>[D,G,D] [D,G,]>[D,G,] [A,,G,]<A,, D,>D, |[M:3/4] G,,6 |[M:1/4][K:treble] G>A | %10
[M:4/4] B6[K:bass] z2 | [D,D]<[D,D] [D,D]>[D,D] [D,D]2 C,>B,, | A,,2 A,,>A,, D,>D, [D,B,]>[D,A,D] | %13
 [G,A,D]<[G,D] [G,D]>[G,D] [G,D]2 [G,,G,]>[G,,G,] | %14
 [G,,G,]>[G,,G,] [G,,G,]>[G,,G,] [G,,G,]>[G,,G,] [A,,F,]>[B,,G,] | %15
[M:9/8] [C,C]>[C,C][C,C]- [C,C]/[E,^G,E]/ [A,E]2- [A,E][^D,_B,]>[D,B,] | %16
[M:4/4] [D,B,]>D, D,>D, A,,<A,, D,>D, |[M:3/4] G,,6 |] %18
V:3
 x8 | x8 | x8 | x8 | x8 | x8 | x8 | x8 |[M:3/4] x6 |[M:1/4] x2 |[M:4/4] z2 D>D D>B [Ac]>[GB] | x8 | %12
 E2 E>E D>[CFA] [Gd]>c | x8 | x8 |[M:9/8] x9 |[M:4/4] x8 |[M:3/4] x6 |] %18
V:4
 x8 | x8 | x8 | x8 | x8 | x8 | x8 | x8 |[M:3/4] x6 |[M:1/4][K:treble] x2 | %10
[M:4/4] z2 G,>G, G,>[G,DG][K:bass] [F,D]>[G,D] | x8 | x8 | x8 | x8 |[M:9/8] x9 |[M:4/4] x8 | %17
[M:3/4] x6 |] %18

